src/app/assets/cards/amex.svg

<?xml version="1.0" encoding="utf-8"?>
<!-- Generator: Adobe Illustrator 22.1.0, SVG Export Plug-In . SVG Version: 6.00 Build 0)  -->
<svg version="1.1" id="Layer_1" xmlns="http://www.w3.org/2000/svg" xmlns:xlink="http://www.w3.org/1999/xlink" x="0px" y="0px"
	 viewBox="0 0 512 323.7" style="enable-background:new 0 0 512 323.7;" xml:space="preserve">
<style type="text/css">
	.st0{fill:#0098D0;}
	.st1{fill:url(#SVGID_2_);}
	.st2{fill:url(#SVGID_3_);}
	.st3{fill:url(#SVGID_5_);}
	.st4{fill:url(#SVGID_6_);}
	.st5{fill:url(#SVGID_8_);}
	.st6{fill:url(#SVGID_9_);}
	.st7{fill:url(#SVGID_11_);}
	.st8{fill:url(#SVGID_12_);}
	.st9{fill:url(#SVGID_14_);}
	.st10{fill:url(#SVGID_15_);}
</style>
<g>
	<g>
		<path class="st0" d="M482.7,7c13.9,0,25.1,11.3,25.1,25.1V290c0,13.9-11.3,25.1-25.1,25.1H31c-13.9,0-25.1-11.3-25.1-25.1V32.1
			C5.9,18.3,17.1,7,31,7L482.7,7 M482.7,2H31C14.4,2,0.9,15.5,0.9,32.1V290c0,16.6,13.5,30.1,30.1,30.1h451.7
			c16.6,0,30.1-13.5,30.1-30.1V32.1C512.8,15.5,499.4,2,482.7,2L482.7,2z"/>
	</g>
	<g>
		<g>
			<g>
				<g>
					
						<radialGradient id="SVGID_2_" cx="101.1836" cy="328.0237" r="512.0785" gradientTransform="matrix(1 0 0 -1 0 321.604)" gradientUnits="userSpaceOnUse">
						<stop  offset="0" style="stop-color:#00B1E7"/>
						<stop  offset="0.427" style="stop-color:#0098CD"/>
						<stop  offset="0.5244" style="stop-color:#008DBE"/>
						<stop  offset="0.8403" style="stop-color:#006C91"/>
						<stop  offset="1" style="stop-color:#005F80"/>
					</radialGradient>
					<path id="SVGID_1_" class="st1" d="M263.5,144.8v-10.1c0,0-0.5-7.9-8.8-7.9h-12.9v18h-13.2v-52h32c0,0,16.7-2,16.7,15.2
						c0,9-7.4,12.1-7.4,12.1s6.4,3,6.4,11.8v12.8L263.5,144.8 M241.8,114.6h13.6c4,0,7.2-2.2,7.2-4.9c0-2.7-3.3-4.9-7.2-4.9h-13.6
						L241.8,114.6L241.8,114.6"/>
				</g>
			</g>
			<g>
				<g>
					
						<radialGradient id="SVGID_3_" cx="101.2017" cy="328.0242" r="512.044" gradientTransform="matrix(1 0 0 -1 0 321.604)" gradientUnits="userSpaceOnUse">
						<stop  offset="0" style="stop-color:#00B1E7"/>
						<stop  offset="0.427" style="stop-color:#0098CD"/>
						<stop  offset="0.5244" style="stop-color:#008DBE"/>
						<stop  offset="0.8403" style="stop-color:#006C91"/>
						<stop  offset="1" style="stop-color:#005F80"/>
					</radialGradient>
					<path id="SVGID_4_" class="st2" d="M419.2,144.8l-20.9-34.8v34.8h-11.4h-2.1h-12.4l-4.7-10.9h-24.1l-4.6,10.9h-12.1h-2.2h-6.3
						c0,0-17.8-2.5-17.8-24.5c0-28.9,20.2-27.7,20.9-27.9l16.3,0.4v11.7l-13.4,0.2c0,0-8.7,0-9.8,11.4c-0.1,1.3-0.2,2.5-0.2,3.6
						c0,17.6,15.3,12.1,15.8,12l16.4-38.8H365l19.8,47.2V92.8h18.7l20.7,34.2V92.8h13.3v52H419.2 M349.3,120.6h12.8l-6.3-15.5
						L349.3,120.6L349.3,120.6"/>
				</g>
			</g>
			<g>
				<g>
					
						<radialGradient id="SVGID_5_" cx="101.2026" cy="328.0164" r="512.0485" gradientTransform="matrix(1 0 0 -1 0 321.604)" gradientUnits="userSpaceOnUse">
						<stop  offset="0" style="stop-color:#00B1E7"/>
						<stop  offset="0.427" style="stop-color:#0098CD"/>
						<stop  offset="0.5244" style="stop-color:#008DBE"/>
						<stop  offset="0.8403" style="stop-color:#006C91"/>
						<stop  offset="1" style="stop-color:#005F80"/>
					</radialGradient>
					<path id="SVGID_7_" class="st3" d="M159.9,144.8v-35.9l-16.5,35.9h-10.8l-16.6-35.7v35.7h-11.5h-1.8H89.9l-4.6-10.9H61.2
						l-4.7,10.9H42.1l21.9-52h18.6l20.1,47.8V92.8h20.9l14.5,32.3l14.4-32.3h20.9v52H159.9 M66.8,120.6h12.8l-6.4-15.5L66.8,120.6
						L66.8,120.6"/>
				</g>
			</g>
			<g>
				<g>
					
						<radialGradient id="SVGID_6_" cx="101.1743" cy="328.0164" r="512.0867" gradientTransform="matrix(1 0 0 -1 0 321.604)" gradientUnits="userSpaceOnUse">
						<stop  offset="0" style="stop-color:#00B1E7"/>
						<stop  offset="0.427" style="stop-color:#0098CD"/>
						<stop  offset="0.5244" style="stop-color:#008DBE"/>
						<stop  offset="0.8403" style="stop-color:#006C91"/>
						<stop  offset="1" style="stop-color:#005F80"/>
					</radialGradient>
					<polyline id="SVGID_10_" class="st4" points="180.6,144.8 180.6,92.8 221.8,92.8 221.8,105 193.9,105 193.9,113 221.1,113 
						221.1,124.8 193.9,124.8 193.9,133.6 221.8,133.6 221.8,144.8 180.6,144.8 					"/>
				</g>
			</g>
			<g>
				<g>
					
						<radialGradient id="SVGID_8_" cx="101.1943" cy="328.0139" r="512.0569" gradientTransform="matrix(1 0 0 -1 0 321.604)" gradientUnits="userSpaceOnUse">
						<stop  offset="0" style="stop-color:#00B1E7"/>
						<stop  offset="0.427" style="stop-color:#0098CD"/>
						<stop  offset="0.5244" style="stop-color:#008DBE"/>
						<stop  offset="0.8403" style="stop-color:#006C91"/>
						<stop  offset="1" style="stop-color:#005F80"/>
					</radialGradient>
					<polyline id="SVGID_13_" class="st5" points="282.9,145 282.9,92.8 296.1,92.8 296.1,145 282.9,145 					"/>
				</g>
			</g>
		</g>
		<g>
			<g>
				<g>
					
						<radialGradient id="SVGID_9_" cx="101.1943" cy="328.0164" r="512.0429" gradientTransform="matrix(1 0 0 -1 0 321.604)" gradientUnits="userSpaceOnUse">
						<stop  offset="0" style="stop-color:#00B1E7"/>
						<stop  offset="0.427" style="stop-color:#0098CD"/>
						<stop  offset="0.5244" style="stop-color:#008DBE"/>
						<stop  offset="0.8403" style="stop-color:#006C91"/>
						<stop  offset="1" style="stop-color:#005F80"/>
					</radialGradient>
					<path id="SVGID_16_" class="st6" d="M314.4,233v-10.1c0,0-0.5-7.9-8.8-7.9h-12.8v18h-13.2v-52h32c0,0,16.7-2,16.7,15.2
						c0,9-7.4,12.1-7.4,12.1s6.3,3,6.3,11.8V233L314.4,233 M292.8,202.7h13.6c4,0,7.2-2.2,7.2-4.9c0-2.7-3.3-4.9-7.2-4.9h-13.6
						V202.7L292.8,202.7"/>
				</g>
			</g>
			<g>
				<g>
					
						<radialGradient id="SVGID_11_" cx="101.2002" cy="328.031" r="512.0732" gradientTransform="matrix(1 0 0 -1 0 321.604)" gradientUnits="userSpaceOnUse">
						<stop  offset="0" style="stop-color:#00B1E7"/>
						<stop  offset="0.427" style="stop-color:#0098CD"/>
						<stop  offset="0.5244" style="stop-color:#008DBE"/>
						<stop  offset="0.8403" style="stop-color:#006C91"/>
						<stop  offset="1" style="stop-color:#005F80"/>
					</radialGradient>
					<path id="SVGID_19_" class="st7" d="M226.4,232.9h-11.5l-14-15.4l-14.1,15.4h-8h-41.1v-52.1h41.1h7l15.1,16.5l15.2-16.5h10.1
						v-0.1h32c0,0,16.7-1.9,16.7,15.3c0,15.3-5.5,20.1-22.6,20.1h-12.9v16.7L226.4,232.9 M209.9,207.3l16.4,18.1v-36.2L209.9,207.3
						L209.9,207.3 M151,221.7h27.8l13-14.3l-13-14.3H151v8h27.1v11.8H151V221.7L151,221.7 M239.5,202.6h13.6c4,0,7.2-2.2,7.2-4.9
						c0-2.7-3.3-4.9-7.2-4.9h-13.6V202.6L239.5,202.6"/>
				</g>
			</g>
			<g>
				<g>
					
						<radialGradient id="SVGID_12_" cx="101.2031" cy="328.011" r="512.0401" gradientTransform="matrix(1 0 0 -1 0 321.604)" gradientUnits="userSpaceOnUse">
						<stop  offset="0" style="stop-color:#00B1E7"/>
						<stop  offset="0.427" style="stop-color:#0098CD"/>
						<stop  offset="0.5244" style="stop-color:#008DBE"/>
						<stop  offset="0.8403" style="stop-color:#006C91"/>
						<stop  offset="1" style="stop-color:#005F80"/>
					</radialGradient>
					<path id="SVGID_22_" class="st8" d="M404.4,232.8h-23.5v-12h20.6c0,0,7.4,0.9,7.4-4.1c0-4.7-11.2-4.3-11.2-4.3
						s-18.2,1.6-18.2-15.5c0-17,16.4-16,16.4-16h25.3V193h-20.4c0,0-7-1.4-7,3.7c0,4.3,9.6,3.7,9.6,3.7s20.2-1.5,20.2,14.2
						c0,16.8-13,18.3-17.6,18.3C405,232.9,404.4,232.8,404.4,232.8"/>
				</g>
			</g>
			<g>
				<g>
					
						<radialGradient id="SVGID_14_" cx="101.1929" cy="328.0198" r="512.0659" gradientTransform="matrix(1 0 0 -1 0 321.604)" gradientUnits="userSpaceOnUse">
						<stop  offset="0" style="stop-color:#00B1E7"/>
						<stop  offset="0.427" style="stop-color:#0098CD"/>
						<stop  offset="0.5244" style="stop-color:#008DBE"/>
						<stop  offset="0.8403" style="stop-color:#006C91"/>
						<stop  offset="1" style="stop-color:#005F80"/>
					</radialGradient>
					<polyline id="SVGID_25_" class="st9" points="333.8,232.9 333.8,181 375,181 375,193 347.1,193 347.1,201 374.3,201 
						374.3,212.8 347.1,212.8 347.1,221.7 375,221.7 375,232.9 333.8,232.9 					"/>
				</g>
			</g>
			<g>
				<g>
					
						<radialGradient id="SVGID_15_" cx="101.2041" cy="328.011" r="512.0272" gradientTransform="matrix(1 0 0 -1 0 321.604)" gradientUnits="userSpaceOnUse">
						<stop  offset="0" style="stop-color:#00B1E7"/>
						<stop  offset="0.427" style="stop-color:#0098CD"/>
						<stop  offset="0.5244" style="stop-color:#008DBE"/>
						<stop  offset="0.8403" style="stop-color:#006C91"/>
						<stop  offset="1" style="stop-color:#005F80"/>
					</radialGradient>
					<path id="SVGID_28_" class="st10" d="M451,232.8h-23.5v-12H448c0,0,7.5,0.9,7.5-4.1c0-4.7-11.2-4.3-11.2-4.3
						s-18.2,1.6-18.2-15.5c0-17,16.4-16,16.4-16h25.3V193h-20.3c0,0-7-1.4-7,3.7c0,4.3,9.6,3.7,9.6,3.7s20.1-1.5,20.1,14.2
						c0,16.8-13,18.3-17.6,18.3C451.6,232.9,451,232.8,451,232.8"/>
				</g>
			</g>
		</g>
	</g>
</g>
</svg>

<svg id="Layer_1" data-name="Layer 1" xmlns="http://www.w3.org/2000/svg" xmlns:xlink="http://www.w3.org/1999/xlink" viewBox="0 0 511.9 318.1"><defs><style>.cls-1{fill:#0098d0;}.cls-2{fill:url(#radial-gradient);}.cls-3{fill:url(#radial-gradient-2);}.cls-4{fill:url(#radial-gradient-3);}.cls-5{fill:url(#radial-gradient-4);}.cls-6{fill:url(#radial-gradient-5);}.cls-7{fill:url(#radial-gradient-6);}.cls-8{fill:url(#radial-gradient-7);}.cls-9{fill:url(#radial-gradient-8);}.cls-10{fill:url(#radial-gradient-9);}.cls-11{fill:url(#radial-gradient-10);}</style><radialGradient id="radial-gradient" cx="101.18" cy="751.98" r="512.08" gradientTransform="translate(0 -758.4)" gradientUnits="userSpaceOnUse"><stop offset="0" stop-color="#00b1e7"/><stop offset="0.43" stop-color="#0098cd"/><stop offset="0.52" stop-color="#008dbe"/><stop offset="0.84" stop-color="#006c91"/><stop offset="1" stop-color="#005f80"/></radialGradient><radialGradient id="radial-gradient-2" cx="101.2" cy="751.98" r="512.04" xlink:href="#radial-gradient"/><radialGradient id="radial-gradient-3" cx="101.2" cy="751.98" r="512.05" xlink:href="#radial-gradient"/><radialGradient id="radial-gradient-4" cx="101.17" cy="751.98" r="512.09" gradientTransform="translate(-0.9 -760.4)" xlink:href="#radial-gradient"/><radialGradient id="radial-gradient-5" cx="101.19" cy="751.99" r="512.06" gradientTransform="translate(-0.9 -760.4)" xlink:href="#radial-gradient"/><radialGradient id="radial-gradient-6" cx="101.19" cy="751.98" r="512.04" xlink:href="#radial-gradient"/><radialGradient id="radial-gradient-7" cx="101.2" cy="751.97" r="512.07" xlink:href="#radial-gradient"/><radialGradient id="radial-gradient-8" cx="101.2" cy="751.99" r="512.04" xlink:href="#radial-gradient"/><radialGradient id="radial-gradient-9" cx="101.19" cy="751.98" r="512.07" gradientTransform="translate(-0.9 -760.4)" xlink:href="#radial-gradient"/><radialGradient id="radial-gradient-10" cx="101.2" cy="751.99" r="512.03" xlink:href="#radial-gradient"/></defs><path class="cls-1" d="M482.7,7a25.12,25.12,0,0,1,25.1,25.1V290a25.12,25.12,0,0,1-25.1,25.1H31A25.12,25.12,0,0,1,5.9,290V32.1A25.12,25.12,0,0,1,31,7H482.7m0-5H31A30.13,30.13,0,0,0,.9,32.1V290A30.13,30.13,0,0,0,31,320.1H482.7A30.13,30.13,0,0,0,512.8,290V32.1A30.07,30.07,0,0,0,482.7,2Z" transform="translate(-0.9 -2)"/><path id="SVGID" class="cls-2" d="M263.5,144.8V134.7s-.5-7.9-8.8-7.9H241.8v18H228.6v-52h32s16.7-2,16.7,15.2a13.13,13.13,0,0,1-7.4,12.1s6.4,3,6.4,11.8v12.8l-12.8.1m-21.7-30.2h13.6c4,0,7.2-2.2,7.2-4.9s-3.3-4.9-7.2-4.9H241.8v9.8h0" transform="translate(-0.9 -2)"/><path id="SVGID-2" data-name="SVGID" class="cls-3" d="M419.2,144.8,398.3,110v34.8H372.4l-4.7-10.9H343.6L339,144.8H318.4s-17.8-2.5-17.8-24.5c0-28.9,20.2-27.7,20.9-27.9l16.3.4v11.7l-13.4.2s-8.7,0-9.8,11.4c-.1,1.3-.2,2.5-.2,3.6,0,17.6,15.3,12.1,15.8,12l16.4-38.8H365l19.8,47.2V92.8h18.7L424.2,127V92.8h13.3v52H419.2m-69.9-24.2h12.8l-6.3-15.5-6.5,15.5h0" transform="translate(-0.9 -2)"/><path id="SVGID-3" data-name="SVGID" class="cls-4" d="M159.9,144.8V108.9l-16.5,35.9H132.6L116,109.1v35.7H89.9l-4.6-10.9H61.2l-4.7,10.9H42.1L64,92.8H82.6l20.1,47.8V92.8h20.9l14.5,32.3,14.4-32.3h20.9v52H159.9M66.8,120.6H79.6l-6.4-15.5-6.4,15.5h0" transform="translate(-0.9 -2)"/><polyline id="SVGID-4" data-name="SVGID" class="cls-5" points="179.7 142.8 179.7 90.8 220.9 90.8 220.9 103 193 103 193 111 220.2 111 220.2 122.8 193 122.8 193 131.6 220.9 131.6 220.9 142.8 179.7 142.8"/><polyline id="SVGID-5" data-name="SVGID" class="cls-6" points="282 143 282 90.8 295.2 90.8 295.2 143 282 143"/><path id="SVGID-6" data-name="SVGID" class="cls-7" d="M314.4,233V222.9s-.5-7.9-8.8-7.9H292.8v18H279.6V181h32s16.7-2,16.7,15.2a13.13,13.13,0,0,1-7.4,12.1s6.3,3,6.3,11.8V233H314.4m-21.6-30.3h13.6c4,0,7.2-2.2,7.2-4.9s-3.3-4.9-7.2-4.9H292.8v9.8h0" transform="translate(-0.9 -2)"/><path id="SVGID-7" data-name="SVGID" class="cls-8" d="M226.4,232.9H214.9l-14-15.4-14.1,15.4H137.7V180.8h48.1l15.1,16.5,15.2-16.5h10.1v-.1h32s16.7-1.9,16.7,15.3c0,15.3-5.5,20.1-22.6,20.1H239.4v16.7l-13,.1m-16.5-25.6,16.4,18.1V189.2l-16.4,18.1h0M151,221.7h27.8l13-14.3-13-14.3H151v8h27.1v11.8H151v8.8h0m88.5-19.1h13.6c4,0,7.2-2.2,7.2-4.9s-3.3-4.9-7.2-4.9H239.5v9.8h0" transform="translate(-0.9 -2)"/><path id="SVGID-8" data-name="SVGID" class="cls-9" d="M404.4,232.8H380.9v-12h20.6s7.4.9,7.4-4.1c0-4.7-11.2-4.3-11.2-4.3s-18.2,1.6-18.2-15.5,16.4-16,16.4-16h25.3V193H400.8s-7-1.4-7,3.7c0,4.3,9.6,3.7,9.6,3.7s20.2-1.5,20.2,14.2c0,16.8-13,18.3-17.6,18.3a10.76,10.76,0,0,1-1.6-.1" transform="translate(-0.9 -2)"/><polyline id="SVGID-9" data-name="SVGID" class="cls-10" points="332.9 230.9 332.9 179 374.1 179 374.1 191 346.2 191 346.2 199 373.4 199 373.4 210.8 346.2 210.8 346.2 219.7 374.1 219.7 374.1 230.9 332.9 230.9"/><path id="SVGID-10" data-name="SVGID" class="cls-11" d="M451,232.8H427.5v-12H448s7.5.9,7.5-4.1c0-4.7-11.2-4.3-11.2-4.3s-18.2,1.6-18.2-15.5,16.4-16,16.4-16h25.3V193H447.5s-7-1.4-7,3.7c0,4.3,9.6,3.7,9.6,3.7s20.1-1.5,20.1,14.2c0,16.8-13,18.3-17.6,18.3a10.76,10.76,0,0,1-1.6-.1" transform="translate(-0.9 -2)"/></svg>
